symbolic/16x16/mimetypes/application-x-nintendo-ds-rom.svg

<svg width="16" height="16" version="1.1" xmlns="http://www.w3.org/2000/svg">
 <path d="M 2.8008,1 C 2.3576,1 2,1.3576 2,1.8008 V 15.199 C 2,15.642 2.3576,16 2.8008,16 H 13.199 C 13.642,16 14,15.642 14,15.199 V 6 L 10,5 9,1 Z" style="fill:#a7a7a7"/>
 <path d="M 14,6 9,1 V 5.1992 C 9,5.6424 9.358,6 9.801,6 Z" style="fill:#c0c0c0"/>
 <path d="m6 6c-0.554 0-1 0.446-1 1v2c0 0.554 0.446 1 1 1h4c0.554 0 1-0.446 1-1v-2c0-0.554-0.446-1-1-1h-4zm0.5253906 1h2.9492188c0.2910847 0 0.5253906 0.2343059 0.5253906 0.5253906v0.9492188c0 0.2910847-0.2343059 0.5253906-0.5253906 0.5253906h-2.9492188c-0.2910847 0-0.5253906-0.2343059-0.5253906-0.5253906v-0.9492188c0-0.2910847 0.2343059-0.5253906 0.5253906-0.5253906z" style="fill:#f4f4f7"/>
 <path d="m6 11c-0.554 0-1 0.446-1 1v2c0 0.554 0.446 1 1 1h4c0.554 0 1-0.446 1-1v-2c0-0.554-0.446-1-1-1h-4zm0.5253906 1h2.9492188c0.2910847 0 0.5253906 0.234306 0.5253906 0.525391v0.949218c0 0.291085-0.2343059 0.525391-0.5253906 0.525391h-2.9492188c-0.2910847 0-0.5253906-0.234306-0.5253906-0.525391v-0.949218c0-0.291085 0.2343059-0.525391 0.5253906-0.525391z" style="fill:#f4f4f7"/>
</svg>

<svg width="16" height="16" xmlns="http://www.w3.org/2000/svg"><path d="M2.8 1a.8.8 0 0 0-.8.8V15.2a.8.8 0 0 0 .8.801H13.2a.8.8 0 0 0 .801-.801V6l-4-1-1-4z" style="fill:#a7a7a7"/><path d="M14 6 9 1v4.2a.8.8 0 0 0 .801.8z" style="fill:silver"/><path d="M6 6c-.554 0-1 .446-1 1v2c0 .554.446 1 1 1h4c.554 0 1-.446 1-1V7c0-.554-.446-1-1-1H6zm.525 1h2.95c.29 0 .525.234.525.525v.95A.524.524 0 0 1 9.475 9h-2.95A.524.524 0 0 1 6 8.475v-.95c0-.29.234-.525.525-.525zM6 11c-.554 0-1 .446-1 1v2c0 .554.446 1 1 1h4c.554 0 1-.446 1-1v-2c0-.554-.446-1-1-1H6zm.525 1h2.95c.29 0 .525.234.525.525v.95a.524.524 0 0 1-.525.525h-2.95A.524.524 0 0 1 6 13.475v-.95c0-.29.234-.525.525-.525z" style="fill:#f4f4f7"/></svg>
